!!!!SEGMENT: pl-wnifc--13846--124_anonim--piesni-polskie-i-ruskie-ludu-galicyjskiego-124-oj-stuknulo-wbiynom.krn
!!!kernsource:
!!!cenid: 18xx:3346
!!!COM: Anonim
!!!COM-rismID: pe30004985
!!!CDT:
!!!CNT:
!!!GTL: Pieśni polskie i ruskie ludu galicyjskiego
!!!OTL: 124. Oj stuknuło wbiynom
!!!PDT: 1833
!!!AGN:
!!!SMS-siglum: PL-Wnifc
!!!SMS-shelfmark: 13846
!!!SMS-shelfwork: 124 G
!!!NIFC-rismSourceID: 1001039630
!!!NIFC-islandoraID:
!!!URL-pdf-islandora:
!!!URL-scan:
!!!ONB-nifc:
!!!AIN: 1 piano 1 vox
!!!key: D
**kern	**kern	**dynam	**kern	**text
*part2	*part2	*part2	*part1	*part1
*staff3	*staff2	*	*staff1	*staff1
*>[A,B,B]	*>[A,B,B]	*>[A,B,B]	*>[A,B,B]	*>[A,B,B]
*>A	*>A	*>A	*>A	*>A
*I"FORTEPIAN.	*I"FORTEPIAN.	*	*I"GŁOS.	*
*Ipiano	*Ipiano	*	*Ivox	*
*ICklav	*ICklav	*	*ICvox	*
*IGacmp	*IGacmp	*	*IGsolo	*
*clefF4	*clefG2	*	*clefG2	*
*k[f#c#]	*k[f#c#]	*	*k[f#c#]	*
*D:	*D:	*	*D:	*
*M3/8	*M3/8	*	*M3/8	*
=1	=1	=1	=1	=1
!	!LO:TX:a:t=E.206.:rj	!	!	!
8D\L	16ff#\LL 16dd\	.	16ff#\	Oj
.	16gg\JJ 16ee\	.	16gg\	stu-
8f#\ 8d\ 8A\	8aa\L 8ff#\	.	8aa\	-knu-
8f#\J 8d\ 8A\	8aa\J 8ff#\	.	8aa\	-ło
=2	=2	=2	=2	=2
8A\L	(>16aa\LL 16ff#\	.	16aa\LL	wbiy-
.	16gg\JJ 16ee\)	.	16gg\JJ	.
8c#\ 8A\	8.gg\L 8.ee\	.	(>8.gg\L	-nom,
8d\J 8A\	.	.	.	.
.	16ff#\Jk 16dd\	.	16ff#\Jk)	.
=3	=3	=3	=3	=3
8c#\ 8A\	(>16gg\LL 16ee\	.	(>16gg\LL	li-
.	16aa\JJ 16ff#\)	.	16aa\JJ)	.
4d\ 4D\	4ff#\ 4dd\	.	4ff#\	-si,
!!LO:LB:g=original
=4	=4	=4	=4	=4
8D\L	(>16ff#\LL 16dd\|	.	16ff#\	ko-
.	16gg\JJ 16ee\|)	.	16gg\	-mar
!	!	!	!LO:N:vis=16	!
8d\ 8A\ 8D\	8aa\L 8ff#\	.	8aa\	z_du-
8d\J 8A\ 8D\	8aa\J 8ff#\	.	8aa\	-ba
=5	=5	=5	=5	=5
!LO:TX:t=P:problem=mixed beam	!	!	!	!
8AA/L	8aa\ 8ff#\|	.	8aa\	po-
8c#\ 8A\	8.gg\L 8.ee\	.	(>8.gg\L	-wa-
8d\J 8A\	.	.	.	.
.	16ff#\Jk 16dd\	.	16ff#\Jk)	.
=6	=6	=6	=6	=6
8c#\ 8A\	16gg\LL 16ee\	.	16gg\LL	-ływ
.	16aa\JJ 16ff#\	.	16aa\JJ	.
4d\ 4A\ 4E\	4ff#\ 4dd\	.	4ff#\	sia
!!LO:PB:g=original
=7!|:	=7!|:	=7!|:	=7!|:	=7!|:
*>B	*>B	*>B	*>B	*>B
*^	*	*	*	*
8A/L 8D/	4D\	16dd\LL 16f#\	.	16dd\	i
.	.	16ee\JJ 16cc#\	.	16ee\	stowk
8d/	.	8ff#\L 8dd\	.	8ff#\	so-
8d/J	8ryy	8ff#\J 8dd\	.	8ff#\	-bi
*v	*v	*	*	*	*
=8	=8	=8	=8	=8
*	*	*^	*	*
!	!	!LO:DY:rj	!LO:DY:rj:b=2	!	!
8e\L 8c#\ 8A\	8.gg\L 8.ee\ 8.cc#\ 8.g\	sf	sf	(>8.gg\L	ho-
8e\J 8c#\ 8A\	.	.	.	.	.
.	16ee\|Jk	.	.	16ee\Jk)	.
8e\ 8c#\ 8A\	8ee\ 8cc#\ 8g\|	.	.	8ee\	-ło-
*	*	*v	*v	*	*
=9	=9	=9	=9	=9
*	*	*^	*	*
8d\ 8A\ 8F#\	8aa\ 8dd\ 8a\|	.	.	8aa\	-wy-
!	!	!LO:DY:rj	!LO:DY:rj:b=2	!	!
4d\ 4A\ 4F#\	4aa\ 4dd\ 4a\|	sf	sf	4aa\	-szcze,
*	*	*v	*v	*	*
!!LO:LB:g=original
=10	=10	=10	=10	=10
8A\L 8D\	16aa\LL 16ff#\|	.	16aa\	o
.	16gg\JJ 16ee\|	.	16gg\	du-
8d\ 8D\	8ff#\L 8dd\|	.	8ff#\	-bo-
8d\J 8D\	8ff#\J 8dd\|	.	8ff#\	-wu
=11	=11	=11	=11	=11
!LO:TX:t=P:problem=mixed beam	!	!LO:DY:rj	!	!
8AA/L 8AAA/	8.gg\L 8.ee\ 8.cc#\ 8.g\|^<	sf	(>8.gg\L	ko-
8e\J 8c#\ 8A\	.	.	.	.
.	16ee\|Jk	.	16ee\Jk)	.
8e\ 8c#\ 8A\	8ee\ 8cc#\ 8g\|	.	8ee\	-re-
=12	=12	=12	=12	=12
*	*	*^	*	*
8A\ 8D\	(16ee\LL 16a\ 16g\	.	.	(>16ee\LL	-ny-
.	16dd\JJ 16a\ 16f#\)	.	.	16dd\JJ)	.
!	!	!LO:DY:rj	!LO:DY:rj:b=2	!	!
4d\ 4A\ 4D\	4dd\ 4a\ 4f#\	sf	sf	4dd\	-szcze.
*	*	*v	*v	*	*
=:|!	=:|!	=:|!	=:|!	=:|!
*-	*-	*-	*-	*-
!!!system-decoration: <s1>{(s2,s3)}
!!!RDF**kern: > = above
!!!RDF**kern: < = below
!!!RDF**kern: | = vertical stroke
!!!ENC: Andrzej Kubiczek
!!!END: 2021-11-11
!!!YEC: Copyright 2022 Narodowy Instytut Fryderyka Chopina (https://polishscores.org)
!!!YEM: Licence CC BY 4.0 (https://creativecommons.org/licenses/by/4.0)
